X: 19419
T: Jackie The Adopted
R: reel
M: 4/4
K: Gmajor
|:"G"G3A BcdB|"C"cedc "G"dg"D"fa|"G"g2dc "Em"BcdG|"Am"Addc "D"AGFA|
"G"G2gf "Bm"defd|"Am"dedc "D"AGFA|"G"G3D GABc|"D" d2cA "G"AGG2:|
|:"Am"ABce "D"d2ag|"D"f3g fdce|"G"dg (3fga bgaf|"D"defd cAdc|
"G"B3d "Em"gabg|"Am" a2eg "D"fadc|"G"B2Bc "Em"d3c|"C"Bd"D"cA "G"AGG2:|

